icons/solid/folder-download.svg

<svg width="24" height="24" viewBox="0 0 24 24" fill="none" xmlns="http://www.w3.org/2000/svg">
<path fill-rule="evenodd" clip-rule="evenodd" d="M2 6C2 4.34315 3.34315 3 5 3H8.92963C9.93269 3 10.8694 3.5013 11.4258 4.3359L12.2383 5.5547C12.4238 5.8329 12.736 6 13.0704 6H19C20.6569 6 22 7.34315 22 9V18C22 19.6569 20.6569 21 19 21H5C3.34315 21 2 19.6569 2 18V6ZM13 11C13 10.4477 12.5523 10 12 10C11.4477 10 11 10.4477 11 11V14.5858L9.70711 13.2929C9.31658 12.9024 8.68342 12.9024 8.29289 13.2929C7.90237 13.6834 7.90237 14.3166 8.29289 14.7071L11.2929 17.7071C11.6834 18.0976 12.3166 18.0976 12.7071 17.7071L15.7071 14.7071C16.0976 14.3166 16.0976 13.6834 15.7071 13.2929C15.3166 12.9024 14.6834 12.9024 14.2929 13.2929L13 14.5858V11Z" fill="currentColor"/>
</svg>

<svg width="24" height="24" fill="none" xmlns="http://www.w3.org/2000/svg"><path fill-rule="evenodd" clip-rule="evenodd" d="M2 6a3 3 0 013-3h3.93a3 3 0 012.496 1.336l.812 1.219A1 1 0 0013.07 6H19a3 3 0 013 3v9a3 3 0 01-3 3H5a3 3 0 01-3-3V6zm11 5a1 1 0 10-2 0v3.586l-1.293-1.293a1 1 0 00-1.414 1.414l3 3a1 1 0 001.414 0l3-3a1 1 0 00-1.414-1.414L13 14.586V11z" fill="currentColor"/></svg>
